packages/core/src/svgs/tokens/branded/MASQ.svg

<svg width="24" height="24" viewBox="0 0 24 24" fill="none" xmlns="http://www.w3.org/2000/svg">
<path d="M18.1506 4.4432C14.9216 1.1856 9.08073 1.1856 5.8517 4.4432C2.62267 7.70081 2.62267 13.4901 5.8517 16.7535L8.57208 19.0281V16.9421C8.57208 15.7534 9.21788 13.7474 11.0468 12.1186C12.283 11.0198 13.5289 9.93204 14.7844 8.85525L14.8586 9.00384L12.0412 11.7128C11.4696 12.4557 10.3267 14.416 10.3267 16.3192C10.3267 18.3823 11.1039 20.3883 12.4583 22L18.1506 16.2505C19.7009 14.6767 20.57 12.5561 20.57 10.3469C20.57 8.13765 19.7009 6.01708 18.1506 4.4432Z" fill="url(#paint0_linear_364_6787)"/>
<defs>
<linearGradient id="paint0_linear_364_6787" x1="12" y1="2.00001" x2="12" y2="22" gradientUnits="userSpaceOnUse">
<stop stop-color="#00C0FF"/>
<stop offset="1" stop-color="#0188FE"/>
</linearGradient>
</defs>
</svg>

<svg xmlns="http://www.w3.org/2000/svg" width="24" height="24" fill="none" viewBox="0 0 24 24">
    <path fill="url(#MASQ__a)" d="M18.15 4.443c-3.228-3.257-9.07-3.257-12.298 0-3.23 3.258-3.23 9.047 0 12.31l2.72 2.275v-2.086c0-1.189.646-3.195 2.475-4.823a280 280 0 0 1 3.737-3.264l.075.149-2.818 2.709c-.571.743-1.714 2.703-1.714 4.606 0 2.063.777 4.07 2.131 5.681l5.693-5.75a8.413 8.413 0 0 0 0-11.807"/>
    <defs>
        <linearGradient id="MASQ__a" x1="12" x2="12" y1="2" y2="22" gradientUnits="userSpaceOnUse">
            <stop stop-color="#00C0FF"/>
            <stop offset="1" stop-color="#0188FE"/>
        </linearGradient>
    </defs>
</svg>
